icons/svg/topo/topo_caravan_site.svg

<?xml version="1.0" encoding="UTF-8" standalone="no"?>
<!-- Created with Inkscape (http://www.inkscape.org/) -->

<svg
   xmlns:dc="http://purl.org/dc/elements/1.1/"
   xmlns:cc="http://creativecommons.org/ns#"
   xmlns:rdf="http://www.w3.org/1999/02/22-rdf-syntax-ns#"
   xmlns:svg="http://www.w3.org/2000/svg"
   xmlns="http://www.w3.org/2000/svg"
   xmlns:sodipodi="http://sodipodi.sourceforge.net/DTD/sodipodi-0.dtd"
   xmlns:inkscape="http://www.inkscape.org/namespaces/inkscape"
   version="1.0"
   width="580"
   height="580"
   id="svg2"
   sodipodi:version="0.32"
   inkscape:version="0.92.3 (2405546, 2018-03-11)"
   sodipodi:docname="topo_caravan_site.svg"
   inkscape:output_extension="org.inkscape.output.svg.inkscape">
  <metadata
     id="metadata2975">
    <rdf:RDF>
      <cc:Work
         rdf:about="">
        <dc:format>image/svg+xml</dc:format>
        <dc:type
           rdf:resource="http://purl.org/dc/dcmitype/StillImage" />
        <cc:license
           rdf:resource="http://web.resource.org/cc/PublicDomain" />
        <dc:language>en</dc:language>
      </cc:Work>
    </rdf:RDF>
  </metadata>
  <sodipodi:namedview
     inkscape:window-height="1006"
     inkscape:window-width="1920"
     inkscape:pageshadow="2"
     inkscape:pageopacity="0.0"
     guidetolerance="10.0"
     gridtolerance="10.0"
     objecttolerance="10.0"
     borderopacity="1.0"
     bordercolor="#666666"
     pagecolor="#ffffff"
     id="base"
     inkscape:zoom="0.92167712"
     inkscape:cx="227.03818"
     inkscape:cy="279.83982"
     inkscape:window-x="1920"
     inkscape:window-y="0"
     inkscape:current-layer="svg2"
     showgrid="false"
     inkscape:window-maximized="1" />
  <defs
     id="defs4">
    <inkscape:perspective
       sodipodi:type="inkscape:persp3d"
       inkscape:vp_x="0 : 290 : 1"
       inkscape:vp_y="0 : 1000 : 0"
       inkscape:vp_z="580 : 290 : 1"
       inkscape:persp3d-origin="290 : 193.33333 : 1"
       id="perspective2441" />
    <inkscape:perspective
       id="perspective3452"
       inkscape:persp3d-origin="30 : 20 : 1"
       inkscape:vp_z="60 : 30 : 1"
       inkscape:vp_y="0 : 1000 : 0"
       inkscape:vp_x="0 : 30 : 1"
       sodipodi:type="inkscape:persp3d" />
    <symbol
       viewBox="244.5 110 489 219.9"
       id="symbol-university">
      <path
         id="path4460"
         d="M79,43l57,119c0,0,21-96,104-96s124,106,124,106l43-133l82-17L0,17L79,43z" />
      <path
         id="path4462"
         d="M94,176l-21,39"
         stroke-width="20"
         stroke="#000000"
         fill="none" />
      <path
         id="path4464"
         d="M300,19c0,10.5-22.6,19-50.5,19S199,29.5,199,19s22.6-19,50.5-19S300,8.5,300,19z" />
      <path
         id="path4466"
         d="M112,216l-16-38L64,88c0,0-9-8-4-35s16-24,16-24"
         stroke-width="20"
         stroke="#000000"
         ill="none" />
    </symbol>
    <inkscape:perspective
       id="perspective4471"
       inkscape:persp3d-origin="372.04724 : 350.78739 : 1"
       inkscape:vp_z="744.09448 : 526.18109 : 1"
       inkscape:vp_y="0 : 1000 : 0"
       inkscape:vp_x="0 : 526.18109 : 1"
       sodipodi:type="inkscape:persp3d" />
    <inkscape:perspective
       id="perspective4668"
       inkscape:persp3d-origin="6 : 4 : 1"
       inkscape:vp_z="12 : 6 : 1"
       inkscape:vp_y="0 : 1000 : 0"
       inkscape:vp_x="0 : 6 : 1"
       sodipodi:type="inkscape:persp3d" />
  </defs>
  <g
     id="g1327">
    <path
       d="M 66.275,1.768 C 24.94,1.768 1.704,23.139 1.704,66.804 L 1.704,516.927 C 1.704,557.771 22.599,579.156 63.896,579.156 L 515.92,579.156 C 557.227,579.156 578.149,558.841 578.149,516.927 L 578.149,66.804 C 578.149,24.203 557.227,1.768 514.628,1.768 C 514.624,1.768 66.133,1.625 66.275,1.768 z "
       style="fill:#111;stroke:#eee;stroke-width:3.40799999"
       id="path1329" />
  </g>
  <path
     style="color:#000000;clip-rule:nonzero;display:inline;overflow:visible;visibility:visible;opacity:1;isolation:auto;mix-blend-mode:normal;color-interpolation:sRGB;color-interpolation-filters:linearRGB;solid-color:#000000;solid-opacity:1;vector-effect:none;fill:#ffffff;fill-opacity:1;fill-rule:nonzero;stroke:none;stroke-width:197.52478027;stroke-linecap:butt;stroke-linejoin:miter;stroke-miterlimit:4;stroke-dasharray:none;stroke-dashoffset:0;stroke-opacity:1;marker:none;paint-order:normal;color-rendering:auto;image-rendering:auto;shape-rendering:auto;text-rendering:auto;enable-background:accumulate"
     d="m 93.501422,130.79098 c -26.07983,23.64779 -58.593879,45.31496 -58.593879,45.31496 v 20.20514 l 23.342908,21.18617 H 194.70459 l -0.36779,25.39128 -57.1253,0.49897 -42.632436,74.52702 -59.671521,16.16462 v 75.76929 h 47.279935 c -0.02765,-0.53893 -0.04741,-1.07824 -0.05912,-1.61776 3.16e-4,-30.18242 24.468682,-54.64963 54.651102,-54.64852 30.18142,3.1e-4 54.64821,24.4671 54.64852,54.64852 -0.0186,0.53961 -0.0452,1.07892 -0.0797,1.61776 h 176.29923 c -0.0269,-0.53894 -0.0457,-1.07825 -0.0566,-1.61776 3.2e-4,-30.18142 24.46711,-54.64821 54.64853,-54.64852 30.18142,3.1e-4 54.64821,24.4671 54.64852,54.64852 -0.0186,0.53961 -0.0452,1.07892 -0.0798,1.61776 h 68.2843 V 151.86029 H 402.64314 l -26.26462,-21.06931 z m 6.905648,25.09182 h 94.29752 v 40.00391 h -94.29752 z m 286.40066,61.61445 h 94.29493 v 72.14911 h -94.29493 z m -120.37182,0 h 80.72284 v 168.94398 h -80.72284 z m -112.68685,49.76554 h 40.5363 v 51.36159 h -68.21035 z m 268.49031,105.98953 c -19.31795,1.4e-4 -34.97821,15.6604 -34.97835,34.97835 1.4e-4,19.31795 15.6604,34.97821 34.97835,34.97835 19.31795,-1.4e-4 34.97821,-15.6604 34.97835,-34.97835 -1.4e-4,-19.31795 -15.6604,-34.97821 -34.97835,-34.97835 z m -285.45995,0.5041 c -19.03978,-4.3e-4 -34.47468,15.43447 -34.47425,34.47425 -4.3e-4,19.03978 15.43447,34.47468 34.47425,34.47425 19.03877,-9.9e-4 34.4721,-15.43548 34.47167,-34.47425 4.3e-4,-19.03877 -15.4329,-34.47326 -34.47167,-34.47425 z"
     id="rect836"
     inkscape:connector-curvature="0"
     sodipodi:nodetypes="ccccccccccccccccccccccccccccccccccccccccccccccccccccccc" />
</svg>

<svg width="580" height="580" viewBox="0 0 580 580" fill="none" xmlns="http://www.w3.org/2000/svg">
<g clip-path="url(#clip0)">
<path d="M66.2751 1.76815C24.9401 1.76815 1.7041 23.1391 1.7041 66.8041V516.927C1.7041 557.771 22.5991 579.156 63.8961 579.156H515.92C557.227 579.156 578.149 558.841 578.149 516.927V66.8041C578.149 24.2031 557.227 1.76815 514.628 1.76815C514.624 1.76815 66.1331 1.62515 66.2751 1.76815Z" fill="#111111" stroke="#EEEEEE" stroke-width="3.408"/>
<path d="M93.5013 130.791C67.4215 154.439 34.9075 176.106 34.9075 176.106V196.311L58.2504 217.497H194.705L194.337 242.889L137.211 243.388L94.579 317.915L34.9075 334.079V409.848H82.1874C82.1598 409.31 82.14 408.77 82.1283 408.231C82.1286 378.048 106.597 353.581 136.779 353.582C166.961 353.582 191.428 378.049 191.428 408.231C191.409 408.77 191.383 409.31 191.348 409.848H367.647C367.621 409.31 367.602 408.77 367.591 408.231C367.591 378.049 392.058 353.582 422.239 353.582C452.421 353.582 476.888 378.049 476.888 408.231C476.869 408.77 476.843 409.31 476.808 409.848H545.092V151.86H402.643L376.378 130.791H93.5013ZM100.407 155.883H194.705V195.887H100.407V155.883ZM386.808 217.497H481.103V289.646H386.808V217.497ZM266.436 217.497H347.159V386.441H266.436V217.497ZM153.749 267.263H194.285V318.624H126.075L153.749 267.263ZM422.239 373.252C402.921 373.252 387.261 388.913 387.261 408.231C387.261 427.549 402.921 443.209 422.239 443.209C441.557 443.209 457.218 427.549 457.218 408.231C457.218 388.913 441.557 373.252 422.239 373.252ZM136.779 373.756C117.74 373.756 102.305 389.191 102.305 408.231C102.305 427.27 117.74 442.705 136.779 442.705C155.818 442.704 171.251 427.269 171.251 408.231C171.251 389.192 155.818 373.757 136.779 373.756Z" fill="white"/>
</g>
<defs>
<clipPath id="clip0">
<path d="M0 0H580V580H0V0Z" fill="white"/>
</clipPath>
</defs>
</svg>
